assets/logos/icons/shuffle.svg

<svg height="24" viewBox="0 0 24 24" width="24" xmlns="http://www.w3.org/2000/svg"><path d="m15.7 19.9h2v2h-2zm-10.00000003 0h2v2h-2zm11.00000003-17.90000005-3.7 3.70000002 1.4 1.40000001 1.3-1.30000001v2.70000001l-4 3.60000002-4.00000002-3.60000002v-2.70000001l1.3 1.30000001 1.40000002-1.40000001-3.70000003-3.70000002-3.70000002 3.70000002 1.40000001 1.40000001 1.30000001-1.30000001v3.60000002l4.50000003 4.00000001-4.50000003 4.1v1.4h2.00000001v-.5l4.00000002-3.6 4 3.6v.5h2v-1.4l-4.5-4.1 4.5-4.00000001v-3.60000002l1.3 1.30000001 1.4-1.40000001z" fill="#492f5c" fill-rule="evenodd"/></svg>

<svg xmlns="http://www.w3.org/2000/svg" xmlns:xlink="http://www.w3.org/1999/xlink" width="24" height="24" viewBox="0 0 24 24">
  <defs>
    <path id="shuffle-a" d="M15.7,19.9 L17.7,19.9 L17.7,21.9 L15.7,21.9 L15.7,19.9 Z M5.69999997,19.9 L7.69999997,19.9 L7.69999997,21.9 L5.69999997,21.9 L5.69999997,19.9 Z M16.7,1.99999995 L13,5.69999997 L14.4,7.09999998 L15.7,5.79999997 L15.7,8.49999998 L11.7,12.1 L7.69999998,8.49999998 L7.69999998,5.79999997 L8.99999998,7.09999998 L10.4,5.69999997 L6.69999997,1.99999995 L2.99999995,5.69999997 L4.39999996,7.09999998 L5.69999997,5.79999997 L5.69999997,9.39999999 L10.2,13.4 L5.69999997,17.5 L5.69999997,18.9 L7.69999998,18.9 L7.69999998,18.4 L11.7,14.8 L15.7,18.4 L15.7,18.9 L17.7,18.9 L17.7,17.5 L13.2,13.4 L17.7,9.39999999 L17.7,5.79999997 L19,7.09999998 L20.4,5.69999997 L16.7,1.99999995 Z"/>
  </defs>
  <use fill="#492F5C" fill-rule="evenodd" xlink:href="#shuffle-a"/>
</svg>
